subway-variant.svg

<svg fill="currentColor" viewBox="0 0 24 24"><path d="M18 11h-5V6h5m-1.5 11a1.5 1.5 0 0 1-1.5-1.5 1.5 1.5 0 0 1 1.5-1.5 1.5 1.5 0 0 1 1.5 1.5 1.5 1.5 0 0 1-1.5 1.5M11 11H6V6h5M7.5 17A1.5 1.5 0 0 1 6 15.5 1.5 1.5 0 0 1 7.5 14 1.5 1.5 0 0 1 9 15.5 1.5 1.5 0 0 1 7.5 17M12 2c-4.42 0-8 .5-8 4v9.5A3.5 3.5 0 0 0 7.5 19L6 20.5v.5h12v-.5L16.5 19a3.5 3.5 0 0 0 3.5-3.5V6c0-3.5-3.58-4-8-4"/></svg>

<svg  viewBox="0 0 24 24" fill="currentColor"><path  d="M18,11H13V6H18M16.5,17A1.5,1.5 0 0,1 15,15.5A1.5,1.5 0 0,1 16.5,14A1.5,1.5 0 0,1 18,15.5A1.5,1.5 0 0,1 16.5,17M11,11H6V6H11M7.5,17A1.5,1.5 0 0,1 6,15.5A1.5,1.5 0 0,1 7.5,14A1.5,1.5 0 0,1 9,15.5A1.5,1.5 0 0,1 7.5,17M12,2C7.58,2 4,2.5 4,6V15.5A3.5,3.5 0 0,0 7.5,19L6,20.5V21H18V20.5L16.5,19A3.5,3.5 0 0,0 20,15.5V6C20,2.5 16.42,2 12,2Z"/></svg>
